X:108
T:Row Well, Ye Mariners
M:6/8
L:1/8
K:G
G | F2 E F2 G | A3 A2 B | cdc BAB | A2 G G2 :|
d | ded A2 B | cdB A2 :: G | GAG F2 G |[1 AFD G2 :|[2 AFD G3 ||
d3 A3 | d3 A3 | d2 e d2 c |[1 B A2 G3:|[2 B A2 G2 ||
%
%
